epam-assets/icon-sources/18/file-file_video.svg

<svg width="18" height="18" viewBox="0 0 18 18" fill="none" xmlns="http://www.w3.org/2000/svg">
<g id="18/file-file_video">
<g id="icon">
<path d="M11.2442 10.5L7.125 12.8538V8.14619L11.2442 10.5Z" fill="#6C6F80"/>
<path fill-rule="evenodd" clip-rule="evenodd" d="M3 3C3 2.1675 3.6675 1.5 4.5 1.5H10.5L15 6V15C15 15.8284 14.3284 16.5 13.5 16.5H4.5C3.67157 16.5 3 15.8284 3 15V3ZM9.75 2.625V6.75H13.875L9.75 2.625ZM6.375 6.85381V14.1462L12.7558 10.5L6.375 6.85381Z" fill="#6C6F80"/>
</g>
</g>
</svg>

<svg xmlns="http://www.w3.org/2000/svg" width="18" height="18" fill="none" viewBox="0 0 18 18">
  <path fill="#6C6F80" d="m11.244 10.5-4.119 2.354V8.146l4.12 2.354Z"/>
  <path fill="#6C6F80" fill-rule="evenodd" d="M3 3c0-.833.667-1.5 1.5-1.5h6L15 6v9a1.5 1.5 0 0 1-1.5 1.5h-9A1.5 1.5 0 0 1 3 15V3Zm6.75-.375V6.75h4.125L9.75 2.625ZM6.375 6.854v7.292l6.38-3.646-6.38-3.646Z" clip-rule="evenodd"/>
</svg>
